.local/share/icons/Gruvbox-Plus-Dark/mimetypes/scalable/application-x-dia-diagram.svg

<svg width="256" height="256" viewBox="0 0 256 256" fill="none" xmlns="http://www.w3.org/2000/svg">
<g opacity="0.4" filter="url(#filter0_f)">
<path d="M55.0839 15.5636H155.608L216.009 75.7129L216.011 224.609C216.011 233.52 208.749 240.737 199.838 240.737H55.0838C46.1734 240.737 39 233.564 39 224.654V31.6474C39 22.737 46.1734 15.5636 55.0838 15.5636H55.0839Z" fill="#282828"/>
</g>
<path d="M55.0839 15H155.608L216.009 75.1493L216.011 224.045C216.011 232.956 208.749 240.174 199.838 240.174H55.0838C46.1734 240.174 39 233 39 224.09V31.0838C39 22.1734 46.1734 15 55.0838 15H55.0839Z" fill="#ebdbb2"/>
<path fill-rule="evenodd" clip-rule="evenodd" d="M155.609 22.9787H55.0839C50.58 22.9787 46.9787 26.5799 46.9787 31.0838V224.09C46.9787 228.594 50.5799 232.195 55.0838 232.195H199.838C204.371 232.195 208.032 228.521 208.032 224.046V75.1493L155.609 22.9787ZM155.608 15H55.0839C46.1735 15 39 22.1734 39 31.0838V224.09C39 233 46.1734 240.174 55.0838 240.174H199.838C208.749 240.174 216.011 232.956 216.011 224.045L216.009 75.1493L155.608 15Z" fill="url(#paint0_linear)"/>
<path d="M95.4268 85.142V95.4812H136.57C153.816 95.4812 167.375 109.04 167.375 126.286C167.375 143.531 153.816 157.089 136.57 157.089H95.4268V167.428H136.57C159.364 167.428 177.714 149.079 177.714 126.286C177.714 103.492 159.364 85.142 136.57 85.142H95.4268Z" fill="url(#paint1_linear)"/>
<path fill-rule="evenodd" clip-rule="evenodd" d="M146.857 134.857L160.571 127.999L146.857 121.142V134.857ZM97.1413 174.286L103.999 188L110.856 174.286H105.991V78.2855H109.141V68H98.8558V78.2855H102.059V174.286H97.1413Z" fill="url(#paint2_linear)"/>
<path d="M78.2862 126.284H146.859V129.712H78.2862V126.284Z" fill="url(#paint3_linear)"/>
<path d="M100.572 69.7159H107.429V76.5732H100.572V69.7159Z" fill="url(#paint4_linear)"/>
<path d="M126.285 109.142L143.428 143.428H109.141L126.285 109.142Z" fill="url(#paint5_linear)"/>
<path opacity="0.25" d="M155.608 17V61.2306C155.608 70.141 162.867 77.1605 171.777 77.1605L216.009 77.1493V75.1493L155.608 17Z" fill="#282828"/>
<path d="M155.608 15V59.2306C155.608 68.141 162.867 75.1605 171.777 75.1605L216.009 75.1493L155.608 15Z" fill="url(#paint6_linear)"/>
<defs>
<filter id="filter0_f" x="23.8778" y="0.441412" width="207.255" height="255.418" filterUnits="userSpaceOnUse" color-interpolation-filters="sRGB">
<feFlood flood-opacity="0" result="BackgroundImageFix"/>
<feBlend mode="normal" in="SourceGraphic" in2="BackgroundImageFix" result="shape"/>
<feGaussianBlur stdDeviation="7.5611" result="effect1_foregroundBlur"/>
</filter>
<linearGradient id="paint0_linear" x1="39" y1="15" x2="39" y2="240.174" gradientUnits="userSpaceOnUse">
<stop offset="1e-07" stop-color="#504945"/>
<stop offset="1" stop-color="#3c3836"/>
</linearGradient>
<linearGradient id="paint1_linear" x1="95.4268" y1="85.142" x2="95.4268" y2="167.428" gradientUnits="userSpaceOnUse">
<stop offset="1e-07" stop-color="#504945"/>
<stop offset="1" stop-color="#3c3836"/>
</linearGradient>
<linearGradient id="paint2_linear" x1="97.1413" y1="68" x2="97.1413" y2="188" gradientUnits="userSpaceOnUse">
<stop offset="1e-07" stop-color="#504945"/>
<stop offset="1" stop-color="#3c3836"/>
</linearGradient>
<linearGradient id="paint3_linear" x1="78.2862" y1="126.284" x2="78.2862" y2="129.712" gradientUnits="userSpaceOnUse">
<stop offset="1e-07" stop-color="#504945"/>
<stop offset="1" stop-color="#3c3836"/>
</linearGradient>
<linearGradient id="paint4_linear" x1="100.572" y1="69.7159" x2="100.572" y2="76.5732" gradientUnits="userSpaceOnUse">
<stop offset="1e-07" stop-color="#b8bb26"/>
<stop offset="1" stop-color="#b8bb26"/>
</linearGradient>
<linearGradient id="paint5_linear" x1="109.141" y1="109.142" x2="109.141" y2="143.428" gradientUnits="userSpaceOnUse">
<stop offset="1e-07" stop-color="#fb4934"/>
<stop offset="1" stop-color="#cc241d"/>
</linearGradient>
<linearGradient id="paint6_linear" x1="155.608" y1="15" x2="155.608" y2="75.1605" gradientUnits="userSpaceOnUse">
<stop offset="1e-07" stop-color="#504945"/>
<stop offset="1" stop-color="#3c3836"/>
</linearGradient>
</defs>
</svg>

<svg width="256" height="256" fill="none" version="1.1" viewBox="0 0 256 256" xmlns="http://www.w3.org/2000/svg">
  <path d="m55.08 15h100.5l60.4 60.15 2e-3 148.9c0 8.911-7.262 16.13-16.17 16.13h-144.8c-8.91 0-16.08-7.174-16.08-16.08v-193c0-8.91 7.173-16.08 16.08-16.08h1e-4z" fill="#ebdbb2"/>
  <path d="m155.6 22.98h-100.5c-4.504 0-8.105 3.601-8.105 8.105v193c0 4.504 3.601 8.105 8.105 8.105h144.8c4.533 0 8.194-3.674 8.194-8.149v-148.9l-52.42-52.17zm-1e-3 -7.979h-100.5c-8.91 0-16.08 7.173-16.08 16.08v193c0 8.91 7.173 16.08 16.08 16.08h144.8c8.911 0 16.17-7.218 16.17-16.13l-2e-3 -148.9-60.4-60.15z" clip-rule="evenodd" fill="url(#paint0_linear)" fill-rule="evenodd"/>
  <path d="m98.86 68v10.29h3.203v6.857h-6.631v10.34h6.631v30.8h-23.77v3.43h23.77v27.38h-6.631v10.34h6.631v6.857h-4.918l6.857 13.71 6.857-13.71h-4.865v-6.857h30.58c22.79 0 41.14-18.35 41.14-41.14 0-22.79-18.35-41.14-41.14-41.14h-30.58v-6.857h3.15v-10.29h-10.29zm7.135 27.48h30.58c17.25 0 30.8 13.56 30.8 30.8 0 17.24-13.56 30.8-30.8 30.8h-30.58v-27.38h40.87v5.145l13.71-6.859-13.71-6.855v5.141h-40.87v-30.8z" fill="#3c3836"/>
  <path d="m100.6 69.72h6.857v6.857h-6.857v-6.857z" fill="url(#paint4_linear)"/>
  <path d="m126.3 109.1 17.14 34.29h-34.29l17.14-34.29z" fill="url(#paint5_linear)"/>
  <path d="m155.6 17v44.23c0 8.91 7.259 15.93 16.17 15.93l44.23-0.0112v-2l-60.4-58.15z" fill="#282828" opacity=".25"/>
  <path d="m155.6 15v44.23c0 8.91 7.259 15.93 16.17 15.93l44.23-0.0112-60.4-60.15z" fill="url(#paint6_linear)"/>
  <defs>
    <linearGradient id="paint0_linear" x1="39" x2="39" y1="15" y2="240.2" gradientUnits="userSpaceOnUse">
      <stop stop-color="#504945" offset="1e-7"/>
      <stop stop-color="#3c3836" offset="1"/>
    </linearGradient>
    <linearGradient id="paint4_linear" x1="100.6" x2="100.6" y1="69.72" y2="76.57" gradientUnits="userSpaceOnUse">
      <stop stop-color="#b8bb26" offset="1e-7"/>
      <stop stop-color="#b8bb26" offset="1"/>
    </linearGradient>
    <linearGradient id="paint5_linear" x1="109.1" x2="109.1" y1="109.1" y2="143.4" gradientUnits="userSpaceOnUse">
      <stop stop-color="#fb4934" offset="1e-7"/>
      <stop stop-color="#cc241d" offset="1"/>
    </linearGradient>
    <linearGradient id="paint6_linear" x1="155.6" x2="155.6" y1="15" y2="75.16" gradientUnits="userSpaceOnUse">
      <stop stop-color="#504945" offset="1e-7"/>
      <stop stop-color="#3c3836" offset="1"/>
    </linearGradient>
  </defs>
</svg>
